src/assets/telp.svg

<svg width="42" height="42" viewBox="0 0 42 42" fill="none" xmlns="http://www.w3.org/2000/svg">
<path id="Vector 189" d="M3.67962 6.70927L8.18178 2.20711C8.57231 1.81658 9.20547 1.81658 9.59599 2.20711L17.0707 9.68178C17.4612 10.0723 17.4612 10.7055 17.0707 11.096L13.843 14.3237C13.5386 14.628 13.4632 15.093 13.6557 15.478L14.3491 16.8649C16.5747 21.3161 20.1839 24.9253 24.6351 27.1509L26.022 27.8443C26.407 28.0368 26.872 27.9614 27.1763 27.657L30.404 24.4293C30.7945 24.0388 31.4277 24.0388 31.8182 24.4293L39.2929 31.904C39.6834 32.2945 39.6834 32.9277 39.2929 33.3182L34.7907 37.8204C32.6794 39.9317 29.3368 40.1693 26.9481 38.3777L15.9619 30.1381C14.2184 28.8304 12.6696 27.2816 11.3619 25.5381L3.12226 14.5519C1.33072 12.1632 1.56827 8.82062 3.67962 6.70927Z" stroke="#222222" stroke-width="3"/>
</svg>

<svg width="42" height="42" fill="none" xmlns="http://www.w3.org/2000/svg"><path d="m3.68 6.71 4.502-4.503a1 1 0 0 1 1.414 0l7.475 7.475a1 1 0 0 1 0 1.414l-3.228 3.228a1 1 0 0 0-.187 1.154l.693 1.387A23 23 0 0 0 24.635 27.15l1.387.693a1 1 0 0 0 1.154-.187l3.228-3.228a1 1 0 0 1 1.414 0l7.475 7.475a1 1 0 0 1 0 1.414L34.79 37.82a6 6 0 0 1-7.843.558l-10.986-8.24a23.004 23.004 0 0 1-4.6-4.6l-8.24-10.986a6 6 0 0 1 .558-7.843Z" stroke="#222" stroke-width="3"/></svg>
